Housesale/img/icon-01.svg

<svg width="90" height="92" viewBox="0 0 90 92" fill="none" xmlns="http://www.w3.org/2000/svg">
<path d="M45.0004 3.95215C21.2152 3.95215 1.93359 23.6622 1.93359 47.9759C1.93359 59.0387 5.92629 69.1474 12.5179 76.8812L26.4155 87.6998C32.0421 90.4555 38.3447 91.9997 45.0004 91.9997C68.7855 91.9997 88.0671 72.2896 88.0671 47.9759C88.0671 23.6622 68.7855 3.95215 45.0004 3.95215Z" fill="#FFC839"/>
<path d="M47.7893 75.6926L47.681 75.4903C47.0544 74.3198 47.4784 72.8379 48.6234 72.1973L48.7552 72.1237C47.5557 72.7948 46.0371 72.3407 45.3806 71.1147C44.724 69.8887 45.1682 68.3364 46.3676 67.6653C45.1681 68.3364 43.6497 67.8823 42.993 66.6561C42.3364 65.43 42.7806 63.8778 43.98 63.2065C42.7804 63.8776 41.2619 63.4236 40.6053 62.1974C39.9488 60.9714 40.393 59.4191 41.5925 58.7477L44.8316 56.9352L44.3379 56.0133C43.9752 55.336 43.3459 54.85 42.6096 54.6782C39.9175 54.0505 37.1227 55.1603 35.5511 57.4809C34.1353 59.63 35.5595 57.0093 31.9708 65.4228C31.7393 65.9841 31.3288 66.4488 30.806 66.7415L12.5176 76.8814C16.3591 81.3887 21.0832 85.0887 26.4152 87.7001L39.3344 80.5368C39.6886 80.3386 40.0825 80.2261 40.486 80.208L44.4134 80.0317C44.8169 80.0136 45.2108 79.9011 45.565 79.7029L50.7572 76.7973L50.5902 76.8392C49.5318 77.1822 48.3414 76.7235 47.7893 75.6926Z" fill="#FCAD6D"/>
<path d="M55.3955 74.2564L42.4991 50.1016L33.4365 52.2355L47.5451 78.6604C48.7348 80.8765 51.4566 81.687 53.6245 80.4709C55.7922 79.2548 56.5852 76.4725 55.3955 74.2564Z" fill="#3C58A0"/>
<path d="M41.5726 58.2013C40.5736 56.3303 41.5977 54.0013 43.6296 53.5228L44.2478 53.3773L42.4989 50.1016L33.4365 52.2357L47.5451 78.6606C48.7118 80.8339 51.352 81.6542 53.4983 80.5378L41.5726 58.2013Z" fill="#2A428C"/>
<path d="M47.5182 75.8438L47.4099 75.6415C46.7831 74.471 47.2073 72.9891 48.3523 72.3483L55.0214 68.6166C56.1665 67.9758 57.6162 68.4094 58.243 69.5799L58.3513 69.7822C58.9781 70.9527 58.5539 72.4346 57.4089 73.0753L50.7398 76.8071C49.5947 77.4479 48.1451 77.0143 47.5182 75.8438Z" fill="#F9BA8F"/>
<path d="M45.1102 71.2662C44.4537 70.04 44.8979 68.4877 46.0974 67.8166L54.0931 63.3425C55.2927 62.6714 56.8112 63.1255 57.4678 64.3515C58.1243 65.5775 57.6801 67.1298 56.4808 67.8011L48.485 72.2752C47.2853 72.9465 45.7668 72.4922 45.1102 71.2662Z" fill="#F9BA8F"/>
<path d="M42.7225 66.8082C42.066 65.582 42.5102 64.0297 43.7095 63.3586L52.2028 58.6062C53.4023 57.9351 54.9209 58.3892 55.5774 59.6152C56.2339 60.8413 55.7897 62.3937 54.5904 63.0648L46.0972 67.8172C44.8976 68.4883 43.3791 68.0342 42.7225 66.8082Z" fill="#F9BA8F"/>
<path d="M52.146 55.7403C51.4895 54.5142 49.9709 54.0601 48.7714 54.7312L41.322 58.8994C40.1224 59.5705 39.6782 61.1229 40.3349 62.349C40.9915 63.5752 42.5101 64.0293 43.7096 63.358L51.1589 59.1898C52.3584 58.5187 52.8026 56.9665 52.146 55.7403Z" fill="#F9BA8F"/>
<path d="M31.0879 66.5568C31.1993 68.1479 31.864 70.6095 34.8324 71.1828C36.8064 71.5641 38.8042 69 38.8042 69C41.3027 65.4318 41.315 62.7979 41.1456 61.6508C41.1308 61.5514 41.2619 61.5065 41.3092 61.5945L41.9464 62.7844C42.1695 63.2009 42.4613 63.554 42.799 63.8388C43.5993 64.4347 44.6948 64.545 45.6208 64.027C46.4774 63.5476 46.9701 62.6534 46.9919 61.7223C47.017 60.6514 46.5464 60.1829 44.3385 56.0133C44.1713 55.7013 43.9254 55.3969 43.6174 55.1585C43.6164 55.1578 43.6155 55.1569 43.6146 55.1561C43.3261 54.9333 42.9837 54.7653 42.6104 54.6782C39.9183 54.0505 37.1235 55.1603 35.5519 57.4809C34.1361 59.63 35.5603 57.0093 31.9715 65.4228C31.7833 65.8788 31.4758 66.2689 31.0879 66.5568Z" fill="#FCAD6D"/>
<path d="M43.8841 60.4705L45.02 62.5917C45.3192 63.1503 45.9787 63.3848 46.5454 63.162C46.8246 62.7351 46.9798 62.2345 46.9917 61.7223C47.0141 60.7711 46.6256 60.3292 45.4775 58.1406L44.3742 58.758C43.7786 59.0912 43.5582 59.8619 43.8841 60.4705Z" fill="#F9DFCD"/>
<path d="M35.8056 70.2534C35.6388 69.9388 35.6988 69.5372 35.9716 69.289C40.5037 65.167 39.8326 60.5855 39.8254 60.5397C39.7567 60.1099 40.0421 59.7047 40.4626 59.6344C40.8833 59.5643 41.2798 59.856 41.348 60.2858C41.3833 60.5077 42.1561 65.7751 36.9973 70.4672C36.6789 70.7567 36.1913 70.7276 35.9081 70.4024C35.8675 70.3558 35.8334 70.3059 35.8056 70.2534Z" fill="#FD995B"/>
<path d="M29.1612 51.5142L24.087 28.9958C24.0532 28.8456 24.0379 28.6957 24.037 28.5479C18.0475 30.282 14.381 36.5355 15.7938 42.8052C17.2065 49.0748 23.1801 53.0587 29.308 51.9394C29.2456 51.8061 29.1952 51.6645 29.1612 51.5142Z" fill="#E9EFFF"/>
<path d="M17.0293 46.0504C19.4366 50.3809 24.3212 52.8502 29.3083 51.9395C29.2457 51.8062 29.1953 51.6646 29.1614 51.5144L27.6194 44.6717C27.4846 44.6001 27.3454 44.5168 27.2019 44.4199C27.2023 44.4199 22.7849 49.1881 17.0293 46.0504Z" fill="#D3DCFB"/>
<path d="M57.4884 13.4443C52.8715 18.974 46.8148 23.0215 40.0488 25.1379C40.0573 25.1689 40.0675 25.1991 40.0747 25.2309L45.1489 47.7494C45.1562 47.7812 45.1598 47.8128 45.1656 47.8446C52.1556 46.7219 59.334 47.6529 65.8523 50.5608L76.7683 55.4303C76.1265 52.5819 65.8623 7.032 65.2203 4.18359L57.4884 13.4443Z" fill="#E9EFFF"/>
<path d="M60.7794 9.50252L66.2607 32.1507C67.1544 35.8433 64.2654 39.372 60.5545 39.0877C56.1693 38.7517 50.2821 38.8733 43.8977 40.596C43.8977 40.596 43.8198 40.7951 43.6377 41.0434L45.1489 47.7494C45.1561 47.7812 45.16 47.8128 45.1656 47.8446C52.1555 46.7219 59.3339 47.6529 65.8522 50.5608L76.7682 55.4303C76.1265 52.5819 65.8622 7.032 65.2203 4.18359L60.7794 9.50252Z" fill="#D3DCFB"/>
<path d="M82.2591 23.4013C77.0182 23.698 73.5732 21.2402 73.5732 21.2402C73.9854 23.0698 76.5647 34.5157 76.9797 36.3573C76.9797 36.3573 79.0256 32.6067 83.8654 30.5297C84.6429 30.196 85.0809 29.3477 84.8916 28.5077L84.0473 24.7608C83.858 23.9208 83.1011 23.3537 82.2591 23.4013Z" fill="#E9EFFF"/>
<path d="M84.395 26.3044C83.4845 26.6806 82.6784 27.0781 81.9796 27.4691C80.1125 28.5136 77.7872 27.4466 77.3095 25.3263C77.0992 24.3936 76.8915 23.4714 76.7174 22.6993C74.729 22.0632 73.5732 21.2402 73.5732 21.2402C73.9854 23.0698 76.5647 34.5157 76.9797 36.3573C76.9797 36.3573 79.0256 32.6067 83.8654 30.5297C84.6431 30.196 85.0809 29.3477 84.8916 28.5077L84.395 26.3044Z" fill="#D3DCFB"/>
<path d="M79.7245 58.5452C78.4472 58.846 77.1735 58.0314 76.8793 56.7258L64.7662 2.97089C64.4719 1.66528 65.2687 0.363264 66.546 0.0624672C67.8232 -0.23833 69.0969 0.576194 69.3912 1.8818L81.5042 55.6368C81.7985 56.9424 81.0017 58.2444 79.7245 58.5452Z" fill="#FF4155"/>
<path d="M81.5046 55.6374L76.7209 34.4082C76.5344 35.4021 75.795 36.2398 74.7683 36.4816C73.7152 36.7296 72.6653 36.2786 72.0801 35.427L76.8796 56.7263C77.1739 58.0319 78.4476 58.8464 79.7248 58.5456C81.002 58.245 81.7988 56.9428 81.5046 55.6374Z" fill="#E80054"/>
<path d="M38.0223 23.619L25.2433 26.628C24.1681 26.8812 23.4971 27.9775 23.7448 29.0766L28.8191 51.595C29.0667 52.6942 30.1392 53.3799 31.2144 53.1267L43.9934 50.1177C45.0686 49.8645 45.7396 48.7682 45.4917 47.6691L40.4175 25.1506C40.17 24.0517 39.0975 23.3658 38.0223 23.619Z" fill="#FF4155"/>
<path d="M40.6617 41.8135L30.6561 44.1696C30.6561 44.1696 29.4627 45.9465 27.2021 44.4203L28.819 51.5954C29.0667 52.6945 30.1391 53.3802 31.2144 53.127L43.9933 50.118C45.0685 49.8648 45.7393 48.7685 45.4917 47.6694L43.8978 40.5967C43.8978 40.5967 43.1081 42.6203 40.6617 41.8135Z" fill="#E80054"/>
<path d="M31.6896 26.7283C31.0893 26.7283 30.5467 26.3063 30.4061 25.6829L29.533 21.808C29.3695 21.0827 29.8123 20.3591 30.5217 20.1922C31.231 20.0242 31.9391 20.4777 32.1024 21.2029L32.9755 25.0779C33.1389 25.8031 32.6962 26.5267 31.9867 26.6937C31.8872 26.717 31.7875 26.7283 31.6896 26.7283Z" fill="#BEC8F7"/>
<path d="M28.8976 23.0256C28.2973 23.0256 27.7546 22.6035 27.614 21.9802C27.4505 21.2549 27.8933 20.5313 28.6028 20.3644L32.3209 19.489C33.0306 19.3213 33.7381 19.7743 33.9015 20.4997C34.065 21.2249 33.6222 21.9485 32.9128 22.1155L29.1946 22.9909C29.0952 23.0144 28.9957 23.0256 28.8976 23.0256Z" fill="#E9EFFF"/>
<path d="M27.5339 30.3146C27.3705 29.5894 27.8133 28.8658 28.5227 28.6989L35.959 26.948C36.6684 26.7802 37.3761 27.2335 37.5396 27.9588C37.7031 28.684 37.2603 29.4076 36.5508 29.5745L29.1146 31.3254C28.4067 31.4925 27.6976 31.0411 27.5339 30.3146Z" fill="#CC0053"/>
<path d="M28.574 34.9326C28.4105 34.2074 28.8533 33.4838 29.5628 33.3168L36.999 31.5659C37.7085 31.3988 38.4162 31.8515 38.5796 32.5767C38.7431 33.3019 38.3003 34.0255 37.5909 34.1925L30.1546 35.9433C29.4469 36.1104 28.7376 35.6591 28.574 34.9326Z" fill="#CC0053"/>
<path d="M29.615 39.5509C29.4515 38.8257 29.8941 38.1021 30.6038 37.9352L38.04 36.1841C38.7497 36.017 39.4572 36.4696 39.6207 37.1949C39.7841 37.9201 39.3415 38.6437 38.6319 38.8106L31.1956 40.5617C30.4879 40.7288 29.7788 40.2774 29.615 39.5509Z" fill="#CC0053"/>
<path d="M30.656 44.1692C30.4925 43.444 30.9352 42.7204 31.6448 42.5534L39.081 40.8024C39.7907 40.6349 40.4984 41.0879 40.6617 41.8131C40.8251 42.5383 40.3825 43.2619 39.6729 43.4289L32.2366 45.1799C31.529 45.347 30.8197 44.8958 30.656 44.1692Z" fill="#CC0053"/>
<path d="M31.697 48.7883C31.5336 48.0631 31.9763 47.3395 32.6858 47.1725L40.1221 45.4216C40.8312 45.2538 41.5394 45.707 41.7027 46.4324C41.8662 47.1576 41.4234 47.8812 40.7139 48.0481L33.2777 49.799C32.57 49.9661 31.8607 49.5149 31.697 48.7883Z" fill="#CC0053"/>
<path d="M39.3344 80.537C27.3607 79.1576 31.0876 66.5572 31.0876 66.5566C30.9976 66.6235 30.9045 66.6866 30.806 66.7417L12.5176 76.8817C16.3591 81.3889 21.0832 85.0889 26.4154 87.7003L39.3344 80.537Z" fill="#FD995B"/>
</svg>

<svg width="90" height="92" fill="none" xmlns="http://www.w3.org/2000/svg"><path d="M45 3.952c-23.785 0-43.066 19.71-43.066 44.024 0 11.063 3.992 21.171 10.584 28.905L26.416 87.7A42.124 42.124 0 0045 92c23.785 0 43.067-19.71 43.067-44.024S68.786 3.952 45 3.952z" fill="#FFC839"/><path d="M47.79 75.693l-.109-.203c-.627-1.17-.203-2.652.942-3.293l.132-.073c-1.2.67-2.718.217-3.374-1.01-.657-1.225-.213-2.778.987-3.449-1.2.671-2.718.217-3.375-1.009s-.212-2.778.987-3.45c-1.2.672-2.718.218-3.375-1.009-.656-1.226-.212-2.778.988-3.45l3.239-1.812-.494-.922a2.648 2.648 0 00-1.728-1.335c-2.693-.627-5.487.482-7.059 2.803-1.416 2.149.008-.472-3.58 7.942a2.68 2.68 0 01-1.165 1.319l-18.288 10.14A43.326 43.326 0 0026.415 87.7l12.92-7.163c.354-.198.748-.31 1.151-.329l3.927-.176c.404-.018.798-.13 1.152-.33l5.192-2.905-.167.042a2.36 2.36 0 01-2.8-1.146z" fill="#FCAD6D"/><path d="M55.395 74.256L42.5 50.102l-9.063 2.134 14.11 26.424c1.189 2.216 3.91 3.027 6.078 1.81 2.168-1.215 2.961-3.998 1.771-6.214z" fill="#3C58A0"/><path d="M41.573 58.201c-1-1.87.025-4.2 2.057-4.678l.618-.146-1.75-3.275-9.061 2.134L47.544 78.66c1.167 2.173 3.807 2.993 5.953 1.877L41.573 58.2z" fill="#2A428C"/><path d="M47.518 75.844l-.108-.203c-.627-1.17-.203-2.652.942-3.293l6.67-3.731c1.145-.641 2.594-.208 3.221.963l.108.202c.627 1.17.203 2.653-.942 3.293l-6.67 3.732c-1.144.64-2.594.207-3.22-.963z" fill="#F9BA8F"/><path d="M45.11 71.266c-.656-1.226-.212-2.778.987-3.45l7.996-4.474c1.2-.67 2.718-.216 3.375 1.01.656 1.225.212 2.778-.987 3.45l-7.996 4.473c-1.2.671-2.718.217-3.375-1.009z" fill="#F9BA8F"/><path d="M42.722 66.808c-.656-1.226-.212-2.778.987-3.45l8.494-4.752c1.2-.67 2.718-.217 3.374 1.01.657 1.225.213 2.778-.987 3.449l-8.493 4.752c-1.2.671-2.718.217-3.375-1.009z" fill="#F9BA8F"/><path d="M52.146 55.74c-.657-1.226-2.175-1.68-3.375-1.009L41.322 58.9c-1.2.672-1.644 2.224-.987 3.45.657 1.226 2.175 1.68 3.375 1.009l7.449-4.168c1.2-.671 1.644-2.223.987-3.45z" fill="#F9BA8F"/><path d="M31.088 66.557c.111 1.59.776 4.052 3.744 4.626 1.974.381 3.972-2.183 3.972-2.183 2.499-3.568 2.511-6.202 2.342-7.35-.015-.099.116-.143.163-.056l.637 1.19c.224.417.515.77.853 1.055a2.59 2.59 0 002.822.188 2.705 2.705 0 001.37-2.305c.026-1.07-.445-1.54-2.652-5.709a2.716 2.716 0 00-.722-.855l-.002-.002a2.623 2.623 0 00-1.005-.478c-2.692-.627-5.486.482-7.058 2.803-1.416 2.149.008-.472-3.58 7.942a2.69 2.69 0 01-.884 1.134z" fill="#FCAD6D"/><path d="M43.884 60.47l1.136 2.122c.3.558.959.793 1.525.57.28-.427.435-.928.447-1.44.022-.95-.366-1.393-1.514-3.581l-1.104.617a1.28 1.28 0 00-.49 1.712z" fill="#F9DFCD"/><path d="M35.806 70.253a.801.801 0 01.166-.964c4.532-4.122 3.86-8.703 3.853-8.75a.787.787 0 01.638-.905c.42-.07.817.222.885.652.035.222.808 5.49-4.35 10.181a.76.76 0 01-1.192-.214z" fill="#FD995B"/><path d="M29.161 51.514l-5.074-22.518c-.034-.15-.05-.3-.05-.448-5.99 1.734-9.656 7.988-8.243 14.257 1.412 6.27 7.386 10.254 13.514 9.134a2.088 2.088 0 01-.147-.425z" fill="#E9EFFF"/><path d="M17.03 46.05c2.407 4.33 7.291 6.8 12.278 5.89a2.071 2.071 0 01-.147-.426l-1.542-6.842a4.613 4.613 0 01-.417-.252s-4.417 4.768-10.173 1.63z" fill="#D3DCFB"/><path d="M57.488 13.444c-4.617 5.53-10.673 9.577-17.44 11.694.01.03.02.061.027.093l5.074 22.518c.007.032.01.064.017.096a36.521 36.521 0 0120.686 2.716l10.916 4.87L65.22 4.183l-7.732 9.26z" fill="#E9EFFF"/><path d="M60.78 9.503l5.48 22.648c.894 3.692-1.995 7.221-5.706 6.937-4.385-.336-10.272-.215-16.656 1.508 0 0-.078.2-.26.447l1.51 6.706c.008.032.012.064.018.096a36.521 36.521 0 0120.686 2.716l10.916 4.87L65.22 4.183l-4.44 5.319z" fill="#D3DCFB"/><path d="M82.26 23.401c-5.242.297-8.687-2.16-8.687-2.16l3.407 15.116s2.046-3.75 6.885-5.827a1.775 1.775 0 001.027-2.022l-.845-3.747a1.733 1.733 0 00-1.788-1.36z" fill="#E9EFFF"/><path d="M84.395 26.304c-.91.377-1.717.774-2.415 1.165-1.868 1.045-4.193-.022-4.67-2.143l-.593-2.627c-1.988-.636-3.144-1.459-3.144-1.459l3.407 15.117s2.046-3.75 6.885-5.827a1.775 1.775 0 001.027-2.022l-.497-2.204z" fill="#D3DCFB"/><path d="M79.725 58.545c-1.278.301-2.551-.514-2.846-1.82L64.766 2.972c-.294-1.306.503-2.608 1.78-2.909 1.277-.3 2.55.514 2.845 1.82l12.113 53.755c.294 1.305-.502 2.607-1.78 2.908z" fill="#FF4155"/><path d="M81.505 55.637L76.72 34.408c-.187.994-.926 1.832-1.953 2.074a2.55 2.55 0 01-2.688-1.055l4.8 21.3c.294 1.305 1.568 2.12 2.845 1.819 1.277-.301 2.074-1.603 1.78-2.909z" fill="#E80054"/><path d="M38.022 23.619l-12.779 3.009c-1.075.253-1.746 1.35-1.498 2.449l5.074 22.518c.248 1.1 1.32 1.785 2.395 1.532l12.78-3.01c1.075-.252 1.746-1.349 1.498-2.448l-5.075-22.518c-.247-1.1-1.32-1.785-2.395-1.532z" fill="#FF4155"/><path d="M40.662 41.813L30.656 44.17s-1.193 1.776-3.454.25l1.617 7.175c.248 1.1 1.32 1.785 2.395 1.532l12.78-3.009c1.075-.253 1.745-1.35 1.498-2.449l-1.594-7.072s-.79 2.023-3.236 1.216z" fill="#E80054"/><path d="M31.69 26.728c-.6 0-1.143-.422-1.284-1.045l-.873-3.875c-.164-.725.28-1.449.989-1.616.709-.168 1.417.286 1.58 1.01l.873 3.876c.164.725-.279 1.449-.988 1.616-.1.023-.2.034-.297.034z" fill="#BEC8F7"/><path d="M28.898 23.026c-.6 0-1.143-.422-1.284-1.046-.163-.725.28-1.449.989-1.616l3.718-.875a1.317 1.317 0 011.58 1.01c.164.726-.279 1.45-.988 1.617l-3.718.875a1.29 1.29 0 01-.297.035z" fill="#E9EFFF"/><path d="M27.534 30.315c-.163-.726.28-1.45.989-1.616l7.436-1.751a1.317 1.317 0 011.58 1.01c.164.726-.279 1.45-.988 1.617l-7.436 1.75a1.318 1.318 0 01-1.581-1.01zm1.04 4.618c-.164-.726.28-1.45.989-1.616l7.436-1.751a1.318 1.318 0 011.58 1.01c.164.726-.279 1.45-.988 1.617l-7.436 1.75a1.318 1.318 0 01-1.581-1.01zm1.041 4.617c-.163-.724.28-1.448.989-1.615l7.436-1.75a1.318 1.318 0 011.58 1.01c.164.725-.278 1.449-.988 1.616l-7.436 1.75a1.318 1.318 0 01-1.581-1.01zm1.041 4.62c-.163-.726.28-1.45.989-1.617l7.436-1.75a1.317 1.317 0 011.58 1.01c.164.725-.279 1.449-.988 1.616l-7.436 1.75a1.318 1.318 0 01-1.581-1.01zm1.041 4.618c-.163-.725.28-1.448.989-1.615l7.436-1.751a1.317 1.317 0 011.58 1.01c.164.726-.279 1.45-.988 1.616L33.278 49.8a1.318 1.318 0 01-1.581-1.01z" fill="#CC0053"/><path d="M39.334 80.537c-11.973-1.38-8.246-13.98-8.246-13.98-.09.067-.184.13-.282.185l-18.288 10.14A43.326 43.326 0 0026.415 87.7l12.92-7.163z" fill="#FD995B"/></svg>
